X: 1
T: Bwlch Llanberis
M: 3/4
L: 1/8
R: waltz
K: Dmaj
|: de | 
f2 af ef | d2 A2 A/B/c | d2 af df | e4 de |
f>g fe dc | B2 A2 de | f2 g<f ef | d4 :|
|: fg | 
a2 fa gf | f2 e2 dc | d2 fd Bd | c4 de |
fg fe dc | B2 A2 de | f2 gf ef | d4 :|
|: A>d | 
f2 a>f e>f | d2 d2 B>c | d2 a>f d>f | e2 A2 (3cde |
f>g f/g/f/e/ d>c | (3BcB A2 d>e | f2 g>f e>f | d2 D2 :|
|: f>g | 
a2 f>a (3agf | (3fgf e2 d>c | d2 f>d (3Bcd | (3ded c2 d>e |
f>g f>e d>c | B2 A2 d>e | f2 g>f e>f |1 (3ddd d2 :|2 d3 ||
K: Gmaj
|: D GA | 
B2 dB AB | G3 D EF | GD dB GB | A4 GA |
Bc BA GF | E/F/E D2 GA | B2 cB AB | G3 :|
|: G Bc | 
d2 Bd cB | B/c/B A2 GF | G2 BG EG | G2 F2 GA |
B>c B/c/B/A/ GF | E2 D3 G | B2 cB AB | G3 :|
